public/logo.svg

<svg xmlns="http://www.w3.org/2000/svg" xmlns:xlink="http://www.w3.org/1999/xlink" width="640" height="640"><defs><path d="M100.94-459.91l-82.67-28.31-79.55 28.31 79.55-161.16 82.67 161.16z" id="b"/><path d="M-61.26-646.05L20.9-616.3l80.04-26.9-82.38 159.73-79.82-162.58z" id="c"/><path d="M-85.47-450.97l-100.38-33.96-96.36 34.68 95.76-195.8 100.98 195.08z" id="d"/><path d="M-731.52-516.81l28.65 82.55-27.97 79.67 160.82-80.24-161.5-81.98z" id="e"/><path d="M760.94 1069.95l159.13 37.72L640 805.25v302.42l120.94-37.72z" id="f"/><path d="M616.88-411.38l-155.57-53.26-149.71 53.26 149.71-303.28 155.57 303.28z" id="g"/><path d="M1037.56-714.66L984.55-559l53.5 149.62L734.53-558.6l303.03-156.06z" id="h"/><path d="M681.86-712.55l53.02 155.65-53.51 149.63L984.89-556.5 681.86-712.55z" id="i"/><path d="M-464.33 1280.14l-155.57-53.27-149.72 53.27 149.72-303.28 155.57 303.28z" id="j"/><path d="M-43.65 976.86l-53.02 155.65 53.51 149.63-303.52-149.23 303.03-156.05z" id="k"/><path d="M-399.35 978.96l53.02 155.65-53.51 149.63 303.52-149.23-303.03-156.05z" id="l"/><path d="M1382.16-283.69l-94.3 324.08 95.17 311.54-539.9-310.7 539.03-324.92z" id="m"/><path d="M318.63 3.85L640 319.74l-314.84 320.3L3.8 324.16 318.63 3.85z" id="n"/><path d="M749.44-279.31l94.31 324.08-95.18 311.54 539.9-310.7-539.03-324.92z" id="o"/><path d="M334.3 1305.76l320 296.38-320-640-314.46 636.17 314.46-292.55z" id="p"/><path d="M-597.5-247.07h192.35v-116.79l136.06 127.27v-272.73h-236.06v-373.92h-398.4l-5.54 646.65 143.33-6.65v-435.77h168.26" id="q"/><path d="M269.6 215.21h51.25v-76.27H269.6v76.27z" id="r"/><path d="M169.32 446.1H269.6V213.53H169.32V446.1z" id="s"/><path d="M320.85 215.21h51.25v-76.27h-51.25v76.27z" id="v"/><path d="M320.85 369h51.25v-76.27h-51.25V369z" id="w"/><path d="M269.6 369h51.25v-76.27H269.6V369z" id="x"/><path d="M372.1 446.1h102.51V215.21H372.1V446.1z" id="y"/><path d="M632.66 320L318.52 640 316.56 3.9 632.66 320z" id="z"/><path d="M-394.35 153.8h106.67V-4.94h-106.67V153.8z" id="A"/><path d="M-394.35 473.88h106.67V315.14h-106.67v158.74z" id="B"/><path d="M-287.68 634.35h213.33V153.8h-213.33v480.55z" id="C"/><path d="M-501.01 473.88h106.66V315.14h-106.66v158.74z" id="D"/><path d="M-501.01 153.8h106.66V-4.94h-106.66V153.8z" id="E"/><path d="M-709.72 634.35h208.71V150.29h-208.71v484.06z" id="F"/></defs><use xlink:href="#a" fill-opacity="0" stroke="#000"/><use xlink:href="#b" fill-opacity="0" stroke="#000"/><use xlink:href="#c" fill-opacity="0" stroke="#000"/><use xlink:href="#d" fill-opacity="0" stroke="#000"/><use xlink:href="#e" fill-opacity="0" stroke="#000"/><use xlink:href="#f" fill-opacity="0" stroke="#000"/><use xlink:href="#g" fill-opacity="0" stroke="#000"/><use xlink:href="#h" opacity=".18"/><use xlink:href="#h" opacity=".18" fill-opacity="0" stroke="#000"/><use xlink:href="#i" opacity=".18"/><use xlink:href="#i" opacity=".18" fill-opacity="0" stroke="#000"/><use xlink:href="#j" fill-opacity="0" stroke="#000"/><use xlink:href="#k" fill-opacity="0" stroke="#000"/><use xlink:href="#l" fill-opacity="0" stroke="#000"/><use xlink:href="#m" opacity=".18"/><use xlink:href="#m" opacity=".18" fill-opacity="0" stroke="#000"/><use xlink:href="#n" fill="#e74ac5"/><use xlink:href="#o" opacity=".18"/><use xlink:href="#o" opacity=".18" fill-opacity="0" stroke="#000"/><use xlink:href="#p" fill-opacity="0" stroke="#000"/><use xlink:href="#q" fill-opacity="0" stroke="#000"/><use xlink:href="#r" fill="#fff"/><use xlink:href="#r" fill-opacity="0" stroke="#382135" stroke-opacity="0"/><use xlink:href="#s" fill="#fff"/><use xlink:href="#s" fill-opacity="0" stroke="#382135" stroke-opacity="0"/><use xlink:href="#t" fill-opacity="0" stroke="#382136" stroke-opacity=".33"/><use xlink:href="#u" fill-opacity="0" stroke="#382136" stroke-opacity=".33"/><use xlink:href="#v" fill="#fff" fill-opacity=".99"/><use xlink:href="#v" fill-opacity="0" stroke="#382136" stroke-opacity="0"/><use xlink:href="#w" fill="#fbfbfb"/><use xlink:href="#w" fill-opacity="0" stroke="#382135" stroke-opacity="0"/><g><use xlink:href="#x" fill="#fff"/><use xlink:href="#x" fill-opacity="0" stroke="#fff" stroke-opacity="0"/></g><g><use xlink:href="#y" fill="#fff"/><use xlink:href="#y" fill-opacity="0" stroke="#382135" stroke-opacity="0"/></g><g><use xlink:href="#z" fill="#35495d" fill-opacity=".23"/><use xlink:href="#z" fill-opacity="0" stroke="#fff" stroke-opacity="0"/></g><g><use xlink:href="#A" fill="#d6d6d6" fill-opacity=".68"/><use xlink:href="#A" fill-opacity="0" stroke="#382135" stroke-opacity="0"/></g><g><use xlink:href="#B" fill="#d6d6d6" fill-opacity=".68"/><use xlink:href="#B" fill-opacity="0" stroke="#382135" stroke-opacity="0"/></g><g><use xlink:href="#C" fill="#d6d6d6" fill-opacity=".68"/><use xlink:href="#C" fill-opacity="0" stroke="#382135" stroke-opacity="0"/></g><g><use xlink:href="#D" fill="#f4f4f4" fill-opacity=".68"/><use xlink:href="#D" fill-opacity="0" stroke="#382135" stroke-opacity="0"/></g><g><use xlink:href="#E" fill="#f4f4f4" fill-opacity=".68"/><use xlink:href="#E" fill-opacity="0" stroke="#382135" stroke-opacity="0"/></g><g><use xlink:href="#F" fill="#f4f4f4" fill-opacity=".68"/><use xlink:href="#F" fill-opacity="0" stroke="#382135" stroke-opacity="0"/></g></svg>

<?xml version="1.0" encoding="UTF-8" standalone="no"?>
<!DOCTYPE svg PUBLIC "-//W3C//DTD SVG 1.1//EN" "http://www.w3.org/Graphics/SVG/1.1/DTD/svg11.dtd">
<svg version="1.1" xmlns="http://www.w3.org/2000/svg" xmlns:xlink="http://www.w3.org/1999/xlink" preserveAspectRatio="xMidYMid meet" viewBox="0 0 640 640" width="640" height="640"><defs><path d="" id="b13XzdqFoN"></path><path d="M100.94 -459.91L18.27 -488.22L-61.28 -459.91L18.27 -621.07L100.94 -459.91Z" id="a2LS3xhQY"></path><path d="M-61.26 -646.05L20.9 -616.3L100.94 -643.2L18.56 -483.47L-61.26 -646.05Z" id="gf57mYnuM"></path><path d="M-85.47 -450.97L-185.85 -484.93L-282.21 -450.25L-186.45 -646.05L-85.47 -450.97Z" id="a8L351HVBN"></path><path d="M-731.52 -516.81L-702.87 -434.26L-730.84 -354.59L-570.02 -434.83L-731.52 -516.81Z" id="c6ZQhDjYNx"></path><path d="M760.94 1069.95L920.07 1107.67L640 805.25L640 1107.67L760.94 1069.95Z" id="a7i6OqVlL"></path><path d="M616.88 -411.38L461.31 -464.64L311.6 -411.38L461.31 -714.66L616.88 -411.38Z" id="esRmlxzcf"></path><path d="M1037.56 -714.66L984.55 -559L1038.05 -409.38L734.53 -558.6L1037.56 -714.66Z" id="gbsMKp4sQ"></path><path d="M681.86 -712.55L734.88 -556.9L681.37 -407.27L984.89 -556.5L681.86 -712.55Z" id="cB4gRHJzb"></path><path d="M-464.33 1280.14L-619.9 1226.87L-769.62 1280.14L-619.9 976.86L-464.33 1280.14Z" id="b3uoYMX8C1"></path><path d="M-43.65 976.86L-96.67 1132.51L-43.16 1282.14L-346.68 1132.91L-43.65 976.86Z" id="afpJYVMq0"></path><path d="M-399.35 978.96L-346.33 1134.61L-399.84 1284.24L-96.32 1135.01L-399.35 978.96Z" id="kcnxUQfMJ"></path><path d="M1382.16 -283.69L1287.86 40.39L1383.03 351.93L843.13 41.23L1382.16 -283.69Z" id="a5luwRcLT"></path><path d="M318.63 3.85L640 319.74L325.16 640.04L3.8 324.16L318.63 3.85Z" id="cYSkbMUkH"></path><path d="M749.44 -279.31L843.75 44.77L748.57 356.31L1288.47 45.61L749.44 -279.31Z" id="c5ajfaTtxz"></path><path d="M334.3 1305.76L654.3 1602.14L334.3 962.14L19.84 1598.31L334.3 1305.76Z" id="a2Ojy9id9L"></path><path d="M-597.5 -247.07L-405.15 -247.07L-405.15 -363.86L-269.09 -236.59L-269.09 -509.32L-505.15 -509.32L-505.15 -883.24L-903.55 -883.24L-909.09 -236.59L-765.76 -243.24L-765.76 -400.23L-765.76 -679.01L-597.5 -679.01" id="bbgjIlhRZ"></path><path d="M269.6 215.21L320.85 215.21L320.85 138.94L269.6 138.94L269.6 215.21Z" id="a1tluoCjyx"></path><path d="M169.32 446.1L269.6 446.1L269.6 213.53L169.32 213.53L169.32 446.1Z" id="cJ5uduV1M"></path><path d="" id="c28an5rd06"></path><path d="" id="afiMQFXON"></path><path d="M320.85 215.21L372.1 215.21L372.1 138.94L320.85 138.94L320.85 215.21Z" id="b2gd6QSlCs"></path><path d="M320.85 369L372.1 369L372.1 292.73L320.85 292.73L320.85 369Z" id="k4edXUGuel"></path><path d="M269.6 369L320.85 369L320.85 292.73L269.6 292.73L269.6 369Z" id="b1SPcLU0Y"></path><path d="M372.1 446.1L474.61 446.1L474.61 215.21L372.1 215.21L372.1 446.1Z" id="bQ0PO3IVN"></path><path d="M632.66 320L318.52 640L316.56 3.9L632.66 320Z" id="b9pFmv6KM7"></path><path d="M-394.35 153.8L-287.68 153.8L-287.68 -4.94L-394.35 -4.94L-394.35 153.8Z" id="b2O1TUPZ4i"></path><path d="M-394.35 473.88L-287.68 473.88L-287.68 315.14L-394.35 315.14L-394.35 473.88Z" id="a5pW8HfPCD"></path><path d="M-287.68 634.35L-74.35 634.35L-74.35 153.8L-287.68 153.8L-287.68 634.35Z" id="cdYmqccp6"></path><path d="M-501.01 473.88L-394.35 473.88L-394.35 315.14L-501.01 315.14L-501.01 473.88Z" id="cNfkAaTdH"></path><path d="M-501.01 153.8L-394.35 153.8L-394.35 -4.94L-501.01 -4.94L-501.01 153.8Z" id="g1JJpg6JE7"></path><path d="M-709.72 634.35L-501.01 634.35L-501.01 150.29L-709.72 150.29L-709.72 634.35Z" id="e8hMu2eWyi"></path></defs><g><g><g><g><use xlink:href="#b13XzdqFoN" opacity="1" fill-opacity="0" stroke="#000000" stroke-width="1" stroke-opacity="1"></use></g></g><g><g><use xlink:href="#a2LS3xhQY" opacity="1" fill-opacity="0" stroke="#000000" stroke-width="1" stroke-opacity="1"></use></g></g><g><g><use xlink:href="#gf57mYnuM" opacity="1" fill-opacity="0" stroke="#000000" stroke-width="1" stroke-opacity="1"></use></g></g><g><g><use xlink:href="#a8L351HVBN" opacity="1" fill-opacity="0" stroke="#000000" stroke-width="1" stroke-opacity="1"></use></g></g><g><g><use xlink:href="#c6ZQhDjYNx" opacity="1" fill-opacity="0" stroke="#000000" stroke-width="1" stroke-opacity="1"></use></g></g><g><g><use xlink:href="#a7i6OqVlL" opacity="1" fill-opacity="0" stroke="#000000" stroke-width="1" stroke-opacity="1"></use></g></g><g><g><use xlink:href="#esRmlxzcf" opacity="1" fill-opacity="0" stroke="#000000" stroke-width="1" stroke-opacity="1"></use></g></g><g><use xlink:href="#gbsMKp4sQ" opacity="0.18" fill="#000000" fill-opacity="1"></use><g><use xlink:href="#gbsMKp4sQ" opacity="0.18" fill-opacity="0" stroke="#000000" stroke-width="1" stroke-opacity="1"></use></g></g><g><use xlink:href="#cB4gRHJzb" opacity="0.18" fill="#000000" fill-opacity="1"></use><g><use xlink:href="#cB4gRHJzb" opacity="0.18" fill-opacity="0" stroke="#000000" stroke-width="1" stroke-opacity="1"></use></g></g><g><g><use xlink:href="#b3uoYMX8C1" opacity="1" fill-opacity="0" stroke="#000000" stroke-width="1" stroke-opacity="1"></use></g></g><g><g><use xlink:href="#afpJYVMq0" opacity="1" fill-opacity="0" stroke="#000000" stroke-width="1" stroke-opacity="1"></use></g></g><g><g><use xlink:href="#kcnxUQfMJ" opacity="1" fill-opacity="0" stroke="#000000" stroke-width="1" stroke-opacity="1"></use></g></g><g><use xlink:href="#a5luwRcLT" opacity="0.18" fill="#000000" fill-opacity="1"></use><g><use xlink:href="#a5luwRcLT" opacity="0.18" fill-opacity="0" stroke="#000000" stroke-width="1" stroke-opacity="1"></use></g></g><g><use xlink:href="#cYSkbMUkH" opacity="1" fill="#e74ac5" fill-opacity="1"></use><g></g></g><g><use xlink:href="#c5ajfaTtxz" opacity="0.18" fill="#000000" fill-opacity="1"></use><g><use xlink:href="#c5ajfaTtxz" opacity="0.18" fill-opacity="0" stroke="#000000" stroke-width="1" stroke-opacity="1"></use></g></g><g><g><use xlink:href="#a2Ojy9id9L" opacity="1" fill-opacity="0" stroke="#000000" stroke-width="1" stroke-opacity="1"></use></g></g><g><g><use xlink:href="#bbgjIlhRZ" opacity="1" fill-opacity="0" stroke="#000000" stroke-width="1" stroke-opacity="1"></use></g></g><g><use xlink:href="#a1tluoCjyx" opacity="1" fill="#ffffff" fill-opacity="1"></use><g><use xlink:href="#a1tluoCjyx" opacity="1" fill-opacity="0" stroke="#382135" stroke-width="1" stroke-opacity="0"></use></g></g><g><g></g><use xlink:href="#cJ5uduV1M" opacity="1" fill="#ffffff" fill-opacity="1"></use><g><use xlink:href="#cJ5uduV1M" opacity="1" fill-opacity="0" stroke="#382135" stroke-width="1" stroke-opacity="0"></use></g></g><g><g><use xlink:href="#c28an5rd06" opacity="1" fill-opacity="0" stroke="#382136" stroke-width="1" stroke-opacity="0.33"></use></g></g><g><g><use xlink:href="#afiMQFXON" opacity="1" fill-opacity="0" stroke="#382136" stroke-width="1" stroke-opacity="0.33"></use></g></g><g><use xlink:href="#b2gd6QSlCs" opacity="1" fill="#ffffff" fill-opacity="0.99"></use><g><use xlink:href="#b2gd6QSlCs" opacity="1" fill-opacity="0" stroke="#382136" stroke-width="1" stroke-opacity="0"></use></g></g><g><use xlink:href="#k4edXUGuel" opacity="1" fill="#fbfbfb" fill-opacity="1"></use><g><use xlink:href="#k4edXUGuel" opacity="1" fill-opacity="0" stroke="#382135" stroke-width="1" stroke-opacity="0"></use></g></g><g><g></g><use xlink:href="#b1SPcLU0Y" opacity="1" fill="#ffffff" fill-opacity="1"></use><g><use xlink:href="#b1SPcLU0Y" opacity="1" fill-opacity="0" stroke="#ffffff" stroke-width="1" stroke-opacity="0"></use></g><g></g></g><g><use xlink:href="#bQ0PO3IVN" opacity="1" fill="#ffffff" fill-opacity="1"></use><g><use xlink:href="#bQ0PO3IVN" opacity="1" fill-opacity="0" stroke="#382135" stroke-width="1" stroke-opacity="0"></use></g></g><g><g></g><use xlink:href="#b9pFmv6KM7" opacity="1" fill="#35495d" fill-opacity="0.23"></use><g><use xlink:href="#b9pFmv6KM7" opacity="1" fill-opacity="0" stroke="#ffffff" stroke-width="1" stroke-opacity="0"></use></g><g></g></g><g><use xlink:href="#b2O1TUPZ4i" opacity="1" fill="#d6d6d6" fill-opacity="0.68"></use><g><use xlink:href="#b2O1TUPZ4i" opacity="1" fill-opacity="0" stroke="#382135" stroke-width="1" stroke-opacity="0"></use></g></g><g><use xlink:href="#a5pW8HfPCD" opacity="1" fill="#d6d6d6" fill-opacity="0.68"></use><g><use xlink:href="#a5pW8HfPCD" opacity="1" fill-opacity="0" stroke="#382135" stroke-width="1" stroke-opacity="0"></use></g></g><g><use xlink:href="#cdYmqccp6" opacity="1" fill="#d6d6d6" fill-opacity="0.68"></use><g><use xlink:href="#cdYmqccp6" opacity="1" fill-opacity="0" stroke="#382135" stroke-width="1" stroke-opacity="0"></use></g></g><g><use xlink:href="#cNfkAaTdH" opacity="1" fill="#f4f4f4" fill-opacity="0.68"></use><g><use xlink:href="#cNfkAaTdH" opacity="1" fill-opacity="0" stroke="#382135" stroke-width="1" stroke-opacity="0"></use></g></g><g><use xlink:href="#g1JJpg6JE7" opacity="1" fill="#f4f4f4" fill-opacity="0.68"></use><g><use xlink:href="#g1JJpg6JE7" opacity="1" fill-opacity="0" stroke="#382135" stroke-width="1" stroke-opacity="0"></use></g></g><g><use xlink:href="#e8hMu2eWyi" opacity="1" fill="#f4f4f4" fill-opacity="0.68"></use><g><use xlink:href="#e8hMu2eWyi" opacity="1" fill-opacity="0" stroke="#382135" stroke-width="1" stroke-opacity="0"></use></g></g></g></g></svg>
